!!!COM: Josquin des Prez
!!!CDT: ~1450-1521/08/27
!!!OTL@@FRA: Ile fantazies de Joskin
!!!AGN: Chanson
!!!SCT: NJE 27.15
!!!SCA: New Josquin Edition 27.15
!!!voices: 3
**kern	**kern	**kern
*staff3	*staff2	*staff1
*Ivox	*Ivox	*Ivox
*I"Bassus	*I"Tenor	*I"Superius
*I'B	*I'T	*I'S
*clefGv2	*clefGv2	*clefG2
*k[b-]	*k[b-]	*k[b-]
*M2/1	*M2/1	*M2/1
*met(C|)	*met(C|)	*met(C|)
=1-	=1-	=1-
0r	0r	1a
.	.	2.a/
.	.	4b-\
=2	=2	=2
1A	0r	4cc\
.	.	4dd\
.	.	1cc
2.A/	.	.
.	.	4b-\
4B-\	.	4a/
=3	=3	=3
4c\	1e	1g
4d\	.	.
1c	.	.
.	2.e\	1r
4B-\	.	.
4A/	4f\	.
=4	=4	=4
0G	4g\	0b-
.	4a\	.
.	1g	.
.	4f\	.
.	4e\	.
=5	=5	=5
2r	1d	1b-
2.G/	.	.
.	1r	1b-
4A/	.	.
4B-\	.	.
4c\	.	.
=6	=6	=6
2d\	1.f	1.a
2D/	.	.
1d	.	.
.	4e\	4g/
.	4d\	4f/
=7	=7	=7
2c\	2e\	2g/
2d\	1d	1f
1B-	.	.
.	4c\	4e/
.	4B-\	4d/
=8	=8	=8
2A/	2c\	2e/
2B-\	1B-	1d
1G	.	.
.	4A/	4c/
.	4G/	4B-/
=9	=9	=9
2r	2A/	2c/
1G	2G/	1B-
.	1d	.
4F/	.	4A/
4E/	.	4G/
=10	=10	=10
1F	1c	2.A/
.	.	4G/
1G	1B-	[1g
=11	=11	=11
0D	0A	1g]
.	.	1f#i
=12	=12	=12
1r	0G	[0g
1d	.	.
=13	=13	=13
4e-i\	1r	0g]
4d\	.	.
4e-i\	.	.
4d\	.	.
2e-i\	[1G	.
[2d\	.	.
=14	=14	=14
4d\]	1G]	1r
4c\	.	.
4B-\	.	.
4A/	.	.
2B-\	[1G	1d
2G/	.	.
=15	=15	=15
1B-	2G/]	1d
.	4F/	.
.	4E/	.
1A	1F	[1d
=16	=16	=16
2G/	1G	2d/]
1B-	.	4c/
.	.	4B-/
.	1r	1c
2A/	.	.
=17	=17	=17
1B-	1G	1d
1r	[1G	1r
=18	=18	=18
0r	1G]	1d
.	1F	1d
=19	=19	=19
0r	2G/	1d
.	1B-	.
.	.	1c
.	2A/	.
=20	=20	=20
2.f\	1.B-	2d/
.	.	1f
4e\	.	.
2d\	.	.
2c\	2c\	2e/
=21	=21	=21
1B-	2d\	2.f/
.	2.f\	.
.	.	4e/
2.f\	.	4d/
.	4e\	4c/
.	4d\	2B-/
4e\	4c\	.
=22	=22	=22
4d\	2B-\	2.f/
4c\	.	.
2.B-\	1f	.
.	.	4g/
.	.	4a/
4A/	.	4b-\
4G/	2e\	[2cc\
4F/	.	.
=23	=23	=23
1G	4d\	2cc\]
.	4c\	.
.	4d\	1b-
.	4B-\	.
1F	1c	.
.	.	2a/
=24	=24	=24
1.f	[0B-	0b-
[2g\	.	.
=25	=25	=25
2g\]	0B-]	1r
4f\	.	.
4e\	.	.
2d\	.	1b-
[2g\	.	.
=26	=26	=26
2g\]	0r	1a
4f\	.	.
4e\	.	.
2.f\	.	1a
4e\	.	.
=27	=27	=27
0c	0e	1g
.	.	1cc
=28	=28	=28
1r	1d	2b-\
.	.	1a
1B-	1d	.
.	.	4g/
.	.	4f/
=29	=29	=29
2c\	2.c\	1e
2A/	.	.
.	8B-/L	.
.	8A/J	.
[1B-	[1G	1r
=30	=30	=30
2B-\]	2G/]	1d
2A/	2F/	.
2B-\	2G/	1d
2A/	2F/	.
=31	=31	=31
1B-	2G/	1d
.	1B-	.
1c	.	[1f
.	2A/	.
=32	=32	=32
0d	2.B-\	2f/]
.	.	4g/
.	4c\	4a/
.	4d\	2b-\
.	4e\	.
.	[2f\	[2a/
=33	=33	=33
4D/	2f\]	2a/]
4E/	.	.
4F/	4e\	4g/
4G/	4d\	4f/
2A/	2c\	2e/
2B-\	[2B-\	[2d/
=34	=34	=34
2.G/	2B-\]	2d/]
.	4A/	4c/
4F/	4G/	4B-/
2D/	2F/	2A/
2E/	[2G/	2G/
=35	=35	=35
0D	2G/]	1A
.	4F/	.
.	4E/	.
.	1F	1r
=36	=36	=36
1.B-	0r	1d
.	.	[1f
4A/	.	.
4G/	.	.
=37	=37	=37
1A	0r	1f]
1G	.	1g
=38	=38	=38
2r	1G	1.b-
1d	.	.
.	[1B-	.
4c\	.	4a/
4B-\	.	4g/
=39	=39	=39
1G	1B-]	1b-
1F	1c	1a
=40	=40	=40
0c	1.e-	3g/V
.	.	3a/
.	.	3b-\Z
.	.	[1cc
.	4d\	.
.	4c\	.
=41	=41	=41
1C	1e-i	1cc]
2r	1d	2b-\
[2F/	.	[2a/
=42	=42	=42
2F/]	1.c	2a/]
4E/	.	4g/
4D/	.	4f/
2E/	.	2g/
2F/	4B-\	2a/
.	4A/	.
=43	=43	=43
1G	2B-\	1d
.	4A/	.
.	4G/	.
1A	1F	2r
.	.	[2a/
=44	=44	=44
1D	2r	4a/]
.	.	4g/
.	2f\	4a/
.	.	4f/
2r	2e\	2g/
[2d\	2f\	2f/
=45	=45	=45
4d\]	1d	2r
4c\	.	.
4B-\	.	2.b-\
4A/	.	.
1G	2r	.
.	.	4a/
.	2g\	4b-\
.	.	4g/
=46	=46	=46
2r	2f\	2a/
2.c\	2g\	2g/
.	1e	2r
4B-\	.	.
4A/	.	[2cc\
4G/	.	.
=47	=47	=47
1F	1f	4cc\]
.	.	4b-\
.	.	4cc\
.	.	4a/
2G/	1d	2b-\
2F/	.	2a/
=48	=48	=48
2E/	1e	4cc\
.	.	4b-\
2C/	.	4a/
.	.	4g/
2D/	2d\	2f/
2E/	[2c\	[2e/
=49	=49	=49
2C/	2c\]	2e/]
2G/	2B-\	1g
1D	1A	.
.	.	2f#i/
=50	=50	=50
0dl	0Gl	0gl
==	==	==
*-	*-	*-
!!!RDF**kern: V=start of tuplet marker
!!!RDF**kern: Z=end of tuplet marker
!!!RDF**kern: l=long note in original notation
!!!RDF**kern: i=editorial accidental
!!!ENC: Jesse Rodin; Victoria Chang 2011/05/30/
!!!END: 2011/05/30/
!!!EED: Jesse Rodin
!!!EEV: 2011/08/09/
!!attribution-level@Jos: 1 (secure)
!!!ONB: Translated from MusicXML and edited on 2011/08/09/ by Craig Sapp
!!muse2ps:  C^@{COM}\n@{SCT}^v100,100,150i2I150Q16
